**kern	**silbe	**harmony	**phrase	**leadinstrument	**rhyme	**timestamp	**harte
*ICvox	*	*M4/4	*	*	*	*	*M4/4
*VRlead	*	*	*	*	*	*	*
*Hstimme	*	*	*	*	*	*	*
*B:	*	*B:	*	*	*	*	*B:
*M4/4	*	*	*	*	*	*	*
*clefG2	*	*	*	*	*	*	*
r;	.	1r;	.	r	.	0	N.C.
=1	=1	=1	=1	=1	=1	=1	=1
*>Letter>A	*>Letter>A	*>Letter>A	*>Letter>A	*>Letter>A	*>Letter>A	*>Letter>A	*>Letter>A
*>Label>Intro	*>Label>Intro	*>Label>Intro	*>Label>Intro	*>Label>Intro	*>Label>Intro	*>Label>Intro	*>Label>Intro
1r	.	2.N	newline	electric guitar	.	0.515	N.C.
.	.	4AM	.	electric guitar	.	1.898	A:5
=2	=2	=2	=2	=2	=2	=2	=2
1r	.	2.BM	.	electric guitar	.	2.358	B:maj
.	.	4EM	.	electric guitar	.	3.741	E:5
=3	=3	=3	=3	=3	=3	=3	=3
1r	.	1BM	.	electric guitar	.	4.201	B:maj
=4	=4	=4	=4	=4	=4	=4	=4
1r	.	1EM	.	electric guitar	.	6.045	E:maj
=5	=5	=5	=5	=5	=5	=5	=5
1r	.	2.BM	.	electric guitar	.	7.888	B:maj
.	.	4AM	.	electric guitar	.	9.27	A:5
=6	=6	=6	=6	=6	=6	=6	=6
1r	.	2.BM	newline	electric guitar	.	9.731	B:maj
.	.	4EM	.	electric guitar	.	11.238	E:5
=7	=7	=7	=7	=7	=7	=7	=7
1r	.	1BM	.	electric guitar	.	11.74	B:maj
=8	=8	=8	=8	=8	=8	=8	=8
1r	.	1EM	.	electric guitar	.	13.749	E:maj
=9	=9	=9	=9	=9	=9	=9	=9
1r	.	2.BM	.	electric guitar	.	15.759	B:maj
.	.	4AM	.	electric guitar	.	17.266	A:5
=10	=10	=10	=10	=10	=10	=10	=10
1r	.	2.BM	newline	electric guitar	.	17.768	B:maj
.	.	4EM	.	electric guitar	.	19.281	E:5
=11	=11	=11	=11	=11	=11	=11	=11
1r	.	1BM	.	electric guitar	.	19.786	B:maj
=12	=12	=12	=12	=12	=12	=12	=12
1r	.	1EM	.	electric guitar	.	21.803	E:maj
=13	=13	=13	=13	=13	=13	=13	=13
1r	.	1BM	.	electric guitar	.	23.821	B:1
=14	=14	=14	=14	=14	=14	=14	=14
2r	.	1BM	.	electric guitar	.	25.838	B:1
8r	.	.	.	.	.	.	.
8B	Well	.	.	.	.	.	.
8B	I've	.	.	.	.	.	.
8B	been	.	.	.	.	.	.
=15	=15	=15	=15	=15	=15	=15	=15
*>Letter>B	*>Letter>B	*>Letter>B	*>Letter>B	*>Letter>B	*>Letter>B	*>Letter>B	*>Letter>B
*>Label>Verse	*>Label>Verse	*>Label>Verse	*>Label>Verse	*>Label>Verse	*>Label>Verse	*>Label>Verse	*>Label>Verse
8d#	look-	1BM	newline	voice	.	27.856	B:maj
8f#	-in'	.	.	.	.	.	.
4f#	real	.	.	.	.	.	.
4f#	hard	.	.	.	A	.	.
8f#	and	.	.	.	.	.	.
8f#	I'm	.	.	.	.	.	.
=16	=16	=16	=16	=16	=16	=16	=16
8g#	try-	1BM	.	voice	.	29.854	B:maj
8f#	-na'	.	.	.	.	.	.
8f#	find	.	.	.	.	.	.
8f#	a	.	.	.	.	.	.
4d#	job	.	.	.	.	.	.
8d#	but	.	.	.	.	.	.
8f#	it	.	.	.	.	.	.
=17	=17	=17	=17	=17	=17	=17	=17
8g#	just	1AM	.	voice	.	31.853	A:maj
8b	keeps	.	.	.	B	.	.
8g#	get-	.	.	.	.	.	.
8f#	-tin'	.	.	.	.	.	.
8d	tough-	.	.	.	.	.	.
8d	-er	.	.	.	.	.	.
8c#	ev-	.	.	.	.	.	.
8B	-ery	.	.	.	b	.	.
=18	=18	=18	=18	=18	=18	=18	=18
4B	day	1AM	.	voice	C	33.851	A:maj
4r	.	.	.	.	.	.	.
8r	.	.	.	.	.	.	.
8A	But	.	.	.	.	.	.
8A	I	.	.	.	.	.	.
[8A	got	.	.	.	.	.	.
=19	=19	=19	=19	=19	=19	=19	=19
8A]	_	1EM	newline	voice	.	35.849	E:maj
8B	to	.	.	.	.	.	.
8B	do	.	.	.	.	.	.
8B	my	.	.	.	.	.	.
4B	part	.	.	.	A	.	.
8B	'cause	.	.	.	.	.	.
8B	I	.	.	.	.	.	.
=20	=20	=20	=20	=20	=20	=20	=20
8d	know	1EM	.	voice	.	37.835	E:maj
8d	in	.	.	.	.	.	.
8c#	my	.	.	.	.	.	.
8B	heart	.	.	.	A	.	.
8r	.	.	.	.	.	.	.
8B	I	.	.	.	.	.	.
8B	got	.	.	.	.	.	.
8B	to	.	.	.	.	.	.
=21	=21	=21	=21	=21	=21	=21	=21
8g#	please	1BM	.	voice	B	39.821	B:maj
8f#	me	.	.	.	.	.	.
8f#	sweet-	.	.	.	B	.	.
8d#	-um	.	.	.	.	.	.
4f#	ba-	.	.	.	C	.	.
8f#	-by	.	.	.	.	.	.
16d#	yeah	.	.	.	.	.	.
16c#	_	.	.	.	.	.	.
=22	=22	=22	=22	=22	=22	=22	=22
4B	_	1BM	.	voice	.	41.807	B:maj
4r	.	.	.	.	.	.	.
8r	.	.	.	.	.	.	.
8B	Well	.	.	.	.	.	.
8B	I	.	.	.	.	.	.
[8d#	ain't	.	.	.	.	.	.
=23	=23	=23	=23	=23	=23	=23	=23
*>Letter>B	*>Letter>B	*>Letter>B	*>Letter>B	*>Letter>B	*>Letter>B	*>Letter>B	*>Letter>B
*>Label>Verse	*>Label>Verse	*>Label>Verse	*>Label>Verse	*>Label>Verse	*>Label>Verse	*>Label>Verse	*>Label>Verse
8d#]	_	1BM	newline	voice	.	43.793	B:maj
8f#	su-	.	.	.	.	.	.
8f#	-per-	.	.	.	.	.	.
4f#	-sti-	.	.	.	(D	.	.
8f#	-tious	.	.	.	d)	.	.
8f#	and	.	.	.	.	.	.
8f#	I	.	.	.	.	.	.
=24	=24	=24	=24	=24	=24	=24	=24
8g#	don't	1BM	.	voice	.	45.767	B:maj
8b	get	.	.	.	.	.	.
8g#	sus-	.	.	.	.	.	.
[8g#	-pic-	.	.	.	(D	.	.
8g#]	_	.	.	.	.	.	.
8f#	-ious	.	.	.	d)	.	.
8f#	but	.	.	.	.	.	.
8f#	my	.	.	.	.	.	.
=25	=25	=25	=25	=25	=25	=25	=25
8g#	wo-	1AM	.	voice	.	47.741	A:maj
8f#	-man	.	.	.	.	.	.
8f#	is	.	.	.	.	.	.
8f#	a	.	.	.	.	.	.
8d	friend	.	.	.	.	.	.
8c#	of	.	.	.	.	.	.
4c#	mine	.	.	.	E	.	.
=26	=26	=26	=26	=26	=26	=26	=26
4B	_	1AM	.	voice	.	49.714	A:maj
4r	.	.	.	.	.	.	.
8r	.	.	.	.	.	.	.
8A	And	.	.	.	.	.	.
8A	I	.	.	.	.	.	.
[8A	know	.	.	.	.	.	.
=27	=27	=27	=27	=27	=27	=27	=27
8A]	_	1EM	newline	voice	.	51.688	E:maj
8B	that	.	.	.	.	.	.
8B	it's	.	.	.	.	.	.
4B	true	.	.	.	F	.	.
8B	that	.	.	.	.	.	.
8B	all	.	.	.	.	.	.
8B	the	.	.	.	.	.	.
=28	=28	=28	=28	=28	=28	=28	=28
8d	things	1EM	.	voice	.	53.653	E:maj
8d	that	.	.	.	.	.	.
8c#	I	.	.	.	.	.	.
8B	do	.	.	.	F	.	.
8r	.	.	.	.	.	.	.
8B	will	.	.	.	.	.	.
8B	come	.	.	.	.	.	.
[8g#	back	.	.	.	.	.	.
=29	=29	=29	=29	=29	=29	=29	=29
8g#]	_	1BM	.	voice	.	55.617	B:maj
8f#	to	.	.	.	.	.	.
8f#	me	.	.	.	.	.	.
8d#	in	.	.	.	.	.	.
4f#	my	.	.	.	.	.	.
8f#	sweet-	.	.	.	.	.	.
8d#	-um	.	.	.	.	.	.
=30	=30	=30	=30	=30	=30	=30	=30
4f#	time	1BM	.	voice	E	57.582	B:maj
16d#	_	.	.	.	.	.	.
16c#	_	.	.	.	.	.	.
8B	_	.	.	.	.	.	.
8r	.	.	.	.	.	.	.
8A	So	.	.	.	.	.	.
8A	keep	.	.	.	.	.	.
8A	on	.	.	.	.	.	.
=31	=31	=31	=31	=31	=31	=31	=31
*>Letter>B	*>Letter>B	*>Letter>B	*>Letter>B	*>Letter>B	*>Letter>B	*>Letter>B	*>Letter>B
*>Label>Chorus	*>Label>Chorus	*>Label>Chorus	*>Label>Chorus	*>Label>Chorus	*>Label>Chorus	*>Label>Chorus	*>Label>Chorus
8A	rock-	1BM	newline	voice	.	59.546	B:maj
8B	-in'	.	.	.	.	.	.
8B	me	.	.	.	.	.	.
4.B	ba-	.	.	.	.	.	.
8B	-by	.	.	.	.	.	.
8r	.	.	.	.	.	.	.
=32	=32	=32	=32	=32	=32	=32	=32
2r	.	2BM	.	voice	.	61.493	B:maj
8r	.	2BMm	.	voice	.	62.467	B:7
8A	Keep	.	.	.	.	.	.
8A	on	.	.	.	.	.	.
8A	a	.	.	.	.	.	.
=33	=33	=33	=33	=33	=33	=33	=33
8A	rock-	1AM	.	voice	.	63.44	A:maj
8B	-in'	.	.	.	.	.	.
8B	me	.	.	.	.	.	.
4.B	ba-	.	.	.	.	.	.
8B	-by	.	.	.	.	.	.
8r	.	.	.	.	.	.	.
=34	=34	=34	=34	=34	=34	=34	=34
2r	.	2AM	.	voice	.	65.387	A:maj
8r	.	2AMm	.	voice	.	66.36	A:7
8A	Keep	.	.	.	.	.	.
8A	on	.	.	.	.	.	.
8A	a	.	.	.	.	.	.
=35	=35	=35	=35	=35	=35	=35	=35
8A	rock-	1EM	newline	voice	.	67.334	E:maj
8B	-in'	.	.	.	.	.	.
8B	me	.	.	.	.	.	.
4.B	ba-	.	.	.	.	.	.
8B	-by	.	.	.	.	.	.
8r	.	.	.	.	.	.	.
=36	=36	=36	=36	=36	=36	=36	=36
2r	.	2EM	.	voice	.	69.281	E:maj
8r	.	2EMm	.	voice	.	70.255	E:7
8A	Keep	.	.	.	.	.	.
8A	on	.	.	.	.	.	.
8A	a	.	.	.	.	.	.
=37	=37	=37	=37	=37	=37	=37	=37
8A	rock-	1BM	.	voice	.	71.229	B:maj
8B	-in'	.	.	.	.	.	.
8B	me	.	.	.	.	.	.
4.B	ba-	.	.	.	.	.	.
8B	-by	.	.	.	.	.	.
8r	.	.	.	.	.	.	.
=38	=38	=38	=38	=38	=38	=38	=38
2r	.	2BM	.	voice	.	73.177	B:maj
8r	.	2BMm	.	voice	.	74.151	B:7
8B	I	.	.	.	.	.	.
8B	went	.	.	.	.	.	.
8B	from	.	.	.	.	.	.
=39	=39	=39	=39	=39	=39	=39	=39
*>Letter>B	*>Letter>B	*>Letter>B	*>Letter>B	*>Letter>B	*>Letter>B	*>Letter>B	*>Letter>B
*>Label>Verse	*>Label>Verse	*>Label>Verse	*>Label>Verse	*>Label>Verse	*>Label>Verse	*>Label>Verse	*>Label>Verse
8d#	Phoe-	1BM	newline	voice	.	75.125	B:maj
8f#	-nix	.	.	.	.	.	.
8f#	Ar-	.	.	.	.	.	.
8f#	-i-	.	.	.	.	.	.
8f#	-zo-	.	.	.	(G	.	.
8f#	-na	.	.	.	g)	.	.
8f#	all	.	.	.	.	.	.
8f#	the	.	.	.	.	.	.
=40	=40	=40	=40	=40	=40	=40	=40
8g#	way	1BM	.	voice	.	77.077	B:maj
8f#	to	.	.	.	.	.	.
8f#	Ta-	.	.	.	.	.	.
8f#	-co-	.	.	.	(G	.	.
8d#	_	.	.	.	.	.	.
8d#	-ma	.	.	.	g)	.	.
8f#	Phil-	.	.	.	.	.	.
8f#	-a-	.	.	.	.	.	.
=41	=41	=41	=41	=41	=41	=41	=41
8g#	-del-	1AM	.	voice	.	79.03	A:maj
8b	-phi-	.	.	.	.	.	.
8g#	-a	.	.	.	g	.	.
8f#	At-	.	.	.	.	.	.
8d	-lan-	.	.	.	.	.	.
8d	-ta	.	.	.	g	.	.
8c#	L.	.	.	.	.	.	.
[8B	A.	.	.	.	C	.	.
=42	=42	=42	=42	=42	=42	=42	=42
4B]	_	1AM	.	voice	.	80.983	A:maj
4r	.	.	.	.	.	.	.
4r	.	.	.	.	.	.	.
[4A	North-	.	.	.	H	.	.
=43	=43	=43	=43	=43	=43	=43	=43
8A]	_	1EM	newline	voice	.	82.935	E:maj
8B	-ern	.	.	.	.	.	.
8B	Ca-	.	.	.	.	.	.
8B	-li-	.	.	.	.	.	.
8B	-forn-	.	.	.	H	.	.
8B	-ia	.	.	.	.	.	.
8B	where	.	.	.	.	.	.
8B	the	.	.	.	.	.	.
=44	=44	=44	=44	=44	=44	=44	=44
4d	girls	1EM	.	voice	.	84.87	E:maj
8c#	are	.	.	.	.	.	.
8B	warm	.	.	.	H	.	.
16c#	_	.	.	.	.	.	.
16B	_	.	.	.	.	.	.
8B	so	.	.	.	.	.	.
8B	I	.	.	.	.	.	.
8B	can	.	.	.	.	.	.
=45	=45	=45	=45	=45	=45	=45	=45
8g#	see	1BM	.	voice	B	86.806	B:maj
8f#	my	.	.	.	.	.	.
8f#	sweet-	.	.	.	B	.	.
8d#	-um	.	.	.	.	.	.
4f#	ba-	.	.	.	.	.	.
8f#	-by	.	.	.	.	.	.
16d#	yeah	.	.	.	.	.	.
16c#	_	.	.	.	.	.	.
=46	=46	=46	=46	=46	=46	=46	=46
4B	_	1BM	.	voice	.	88.741	B:maj
4r	.	.	.	.	.	.	.
8r	.	.	.	.	.	.	.
8A	Keep	.	.	.	.	.	.
8A	on	.	.	.	.	.	.
8A	a	.	.	.	.	.	.
=47	=47	=47	=47	=47	=47	=47	=47
*>Letter>B	*>Letter>B	*>Letter>B	*>Letter>B	*>Letter>B	*>Letter>B	*>Letter>B	*>Letter>B
*>Label>Chorus	*>Label>Chorus	*>Label>Chorus	*>Label>Chorus	*>Label>Chorus	*>Label>Chorus	*>Label>Chorus	*>Label>Chorus
8A	rock-	1BM	newline	voice	.	90.676	B:maj
8B	-in'	.	.	.	.	.	.
8B	me	.	.	.	.	.	.
4.B	ba-	.	.	.	.	.	.
8B	-by	.	.	.	.	.	.
8r	.	.	.	.	.	.	.
=48	=48	=48	=48	=48	=48	=48	=48
2r	.	2BM	.	voice	.	92.641	B:maj
8r	.	2BMm	.	voice	.	93.623	B:7
8A	Keep	.	.	.	.	.	.
8A	on	.	.	.	.	.	.
8A	a	.	.	.	.	.	.
=49	=49	=49	=49	=49	=49	=49	=49
8A	rock-	1AM	.	voice	.	94.606	A:maj
8B	-in'	.	.	.	.	.	.
8B	me	.	.	.	.	.	.
4.B	ba-	.	.	.	.	.	.
8B	-by	.	.	.	.	.	.
8r	.	.	.	.	.	.	.
=50	=50	=50	=50	=50	=50	=50	=50
2r	.	2AM	.	voice	.	96.571	A:maj
8r	.	2AMm	.	voice	.	97.553	A:7
8A	Keep	.	.	.	.	.	.
8A	on	.	.	.	.	.	.
8A	a	.	.	.	.	.	.
=51	=51	=51	=51	=51	=51	=51	=51
8A	rock-	1EM	newline	voice	.	98.535	E:maj
8B	-in'	.	.	.	.	.	.
8B	me	.	.	.	.	.	.
4.B	ba-	.	.	.	.	.	.
8B	-by	.	.	.	.	.	.
8r	.	.	.	.	.	.	.
=52	=52	=52	=52	=52	=52	=52	=52
2r	.	2EM	.	voice	.	100.482	E:maj
8r	.	2EMm	.	voice	.	101.455	E:7
8A	Keep	.	.	.	.	.	.
8A	on	.	.	.	.	.	.
8A	a	.	.	.	.	.	.
=53	=53	=53	=53	=53	=53	=53	=53
8A	rock-	1BM	.	voice	.	102.429	B:maj
8B	-in'	.	.	.	.	.	.
8B	me	.	.	.	.	.	.
4.B	ba-	.	.	.	.	.	.
8B	-by	.	.	.	.	.	.
8r	.	.	.	.	.	.	.
=54	=54	=54	=54	=54	=54	=54	=54
8d#	Ba-	2BM	.	voice	.	104.375	B:maj
8d	-by	.	.	.	.	.	.
8d#	Ba-	.	.	.	.	.	.
8d	-by	.	.	.	.	.	.
8d#	Ba-	2BMm	.	voice	.	105.349	B:7
8d	-by	.	.	.	.	.	.
8A	keep	.	.	.	.	.	.
8A	on	.	.	.	.	.	.
=55	=55	=55	=55	=55	=55	=55	=55
*>Letter>A	*>Letter>A	*>Letter>A	*>Letter>A	*>Letter>A	*>Letter>A	*>Letter>A	*>Letter>A
*>Label>Interlude	*>Label>Interlude	*>Label>Interlude	*>Label>Interlude	*>Label>Interlude	*>Label>Interlude	*>Label>Interlude	*>Label>Interlude
8B	rock-	2.BM	newline	electric guitar	.	106.322	B:maj
8B	-in'	.	.	.	.	.	.
4r	.	.	.	.	.	.	.
2r	.	.	.	.	.	.	.
.	.	4EM	.	electric guitar	.	107.795	E:5
=56	=56	=56	=56	=56	=56	=56	=56
4r	.	1BM	.	electric guitar	.	108.286	B:maj
8f#	Rock-	.	.	.	.	.	.
16e	-in'	.	.	.	.	.	.
8d#	my	.	.	.	.	.	.
8.f#	ba-	.	.	.	.	.	.
4f#	-by	.	.	.	.	.	.
=57	=57	=57	=57	=57	=57	=57	=57
1r	.	1EM	.	electric guitar	.	110.25	E:maj
=58	=58	=58	=58	=58	=58	=58	=58
2r	.	2.BM	.	electric guitar	.	112.214	B:maj
8r	.	.	.	.	.	.	.
8f#	Keep	.	.	.	.	.	.
8e	on	4AM	.	electric guitar	.	113.687	A:5
8d	a	.	.	.	.	.	.
=59	=59	=59	=59	=59	=59	=59	=59
8e	rock-	2.BM	newline	electric guitar	.	114.178	B:maj
4f#	-in'	.	.	.	.	.	.
8r	.	.	.	.	.	.	.
8r	.	.	.	.	.	.	.
8f#	Rock-	.	.	.	.	.	.
8e	-in'	4EM	.	electric guitar	.	115.691	E:5
8d	me	.	.	.	.	.	.
=60	=60	=60	=60	=60	=60	=60	=60
4e	ba-	1BM	.	electric guitar	.	116.195	B:maj
4f#	-by	.	.	.	.	.	.
2r	.	.	.	.	.	.	.
=61	=61	=61	=61	=61	=61	=61	=61
1r	.	1EM	.	electric guitar	.	118.212	E:maj
=62	=62	=62	=62	=62	=62	=62	=62
4.dd	Hoo	1BM	.	electric guitar	.	120.229	B:1
4e	hoo	.	.	.	.	.	.
4e	hoo	.	.	.	.	.	.
[8d	hoo	.	.	.	.	.	.
=63	=63	=63	=63	=63	=63	=63	=63
4.d]	_	1BM	.	electric guitar	.	122.246	B:1
8E	yeah	.	.	.	.	.	.
8D	_	.	.	.	.	.	.
8r	.	.	.	.	.	.	.
4r	.	.	.	.	.	.	.
=64	=64	=64	=64	=64	=64	=64	=64
*>Letter>B	*>Letter>B	*>Letter>B	*>Letter>B	*>Letter>B	*>Letter>B	*>Letter>B	*>Letter>B
*>Label>Verse	*>Label>Verse	*>Label>Verse	*>Label>Verse	*>Label>Verse	*>Label>Verse	*>Label>Verse	*>Label>Verse
8d#	Don't	1BM	newline	voice	.	124.263	B:maj
8f#	get	.	.	.	.	.	.
8f#	sus-	.	.	.	.	.	.
4f#	-pi-	.	.	.	.	.	.
8f#	-cious	.	.	.	.	.	.
8f#	Now	.	.	.	.	.	.
[8g#	don't	.	.	.	.	.	.
=65	=65	=65	=65	=65	=65	=65	=65
8g#]	_	1BM	.	voice	.	126.204	B:maj
8f#	be	.	.	.	.	.	.
8f#	sus-	.	.	.	.	.	.
[8d#	-pic-	.	.	.	.	.	.
8d#]	_	.	.	.	.	.	.
8e	-ious	.	.	.	.	.	.
8f#	Babe	.	.	.	.	.	.
8f#	you	.	.	.	.	.	.
=66	=66	=66	=66	=66	=66	=66	=66
8g#	know	1AM	.	voice	.	128.145	A:maj
8f#	you	.	.	.	.	.	.
8f#	are	.	.	.	.	.	.
8f#	a	.	.	.	.	.	.
8d	friend	.	.	.	.	.	.
8c#	of	.	.	.	.	.	.
8c#	mine	.	.	.	E	.	.
[8d	_	.	.	.	.	.	.
=67	=67	=67	=67	=67	=67	=67	=67
8d]	_	1AM	.	voice	.	130.086	A:maj
8r	.	.	.	.	.	.	.
4r	.	.	.	.	.	.	.
8r	.	.	.	.	.	.	.
8A	And	.	.	.	.	.	.
8A	you	.	.	.	.	.	.
[8A	know	.	.	.	.	.	.
=68	=68	=68	=68	=68	=68	=68	=68
8A]	_	1EM	newline	voice	.	132.027	E:maj
8B	that	.	.	.	.	.	.
8B	it's	.	.	.	.	.	.
4B	true	.	.	.	.	.	.
8B	that	.	.	.	.	.	.
8B	all	.	.	.	.	.	.
8B	the	.	.	.	.	.	.
=69	=69	=69	=69	=69	=69	=69	=69
8d	things	1EM	.	voice	.	134.021	E:maj
8d	that	.	.	.	.	.	.
8c#	I	.	.	.	.	.	.
4B	do	.	.	.	.	.	.
8B	are	.	.	.	.	.	.
8B	gon-	.	.	.	.	.	.
8B	-na	.	.	.	.	.	.
=70	=70	=70	=70	=70	=70	=70	=70
8g#	come	1BM	.	voice	.	136.015	B:maj
8f#	back	.	.	.	.	.	.
8f#	to	.	.	.	.	.	.
8d#	you	.	.	.	.	.	.
8f#	in	.	.	.	.	.	.
8f#	your	.	.	.	.	.	.
8f#	sweet-	.	.	.	.	.	.
8c#	-time	.	.	.	E	.	.
=71	=71	=71	=71	=71	=71	=71	=71
4B	_	1BM	.	voice	.	138.009	B:maj
4r	.	.	.	.	.	.	.
8r	.	.	.	.	.	.	.
8B	I	.	.	.	.	.	.
8B	went	.	.	.	.	.	.
8B	from	.	.	.	.	.	.
=72	=72	=72	=72	=72	=72	=72	=72
*>Letter>B	*>Letter>B	*>Letter>B	*>Letter>B	*>Letter>B	*>Letter>B	*>Letter>B	*>Letter>B
*>Label>Verse	*>Label>Verse	*>Label>Verse	*>Label>Verse	*>Label>Verse	*>Label>Verse	*>Label>Verse	*>Label>Verse
8d#	Phoe-	1BM	newline	voice	.	140.002	B:maj
8f#	-nix	.	.	.	.	.	.
8f#	Ar-	.	.	.	.	.	.
8f#	-i-	.	.	.	.	.	.
8f#	-zo-	.	.	.	(G	.	.
8f#	-na	.	.	.	g)	.	.
8f#	all	.	.	.	.	.	.
8f#	the	.	.	.	.	.	.
=73	=73	=73	=73	=73	=73	=73	=73
8g#	way	1BM	.	voice	.	141.956	B:maj
8f#	to	.	.	.	.	.	.
8f#	Ta-	.	.	.	.	.	.
4f#	-co-	.	.	.	(G	.	.
8f#	-ma	.	.	.	g)	.	.
8g#	Phil-	.	.	.	.	.	.
8g#	-a-	.	.	.	g	.	.
=74	=74	=74	=74	=74	=74	=74	=74
8g#	-del-	1AM	.	voice	.	143.909	A:maj
8b	-phi-	.	.	.	.	.	.
8g#	-a	.	.	.	g	.	.
8f#	At-	.	.	.	.	.	.
8d	-lan-	.	.	.	.	.	.
8d	-ta	.	.	.	g	.	.
8c#	L.	.	.	.	.	.	.
8B	A.	.	.	.	C	.	.
=75	=75	=75	=75	=75	=75	=75	=75
4d	_	1AM	.	voice	.	145.862	A:maj
4r	.	.	.	.	.	.	.
4r	.	.	.	.	.	.	.
[4A	North-	.	.	.	H	.	.
=76	=76	=76	=76	=76	=76	=76	=76
8A]	_	1EM	newline	voice	.	147.815	E:maj
8B	-ern	.	.	.	.	.	.
8B	Ca-	.	.	.	.	.	.
8B	-li-	.	.	.	.	.	.
8B	-forn-	.	.	.	H	.	.
8B	-ia	.	.	.	.	.	.
8B	where	.	.	.	.	.	.
8B	the	.	.	.	.	.	.
=77	=77	=77	=77	=77	=77	=77	=77
4d	girls	1EM	.	voice	.	149.786	E:maj
8c#	are	.	.	.	.	.	.
4B	warm	.	.	.	H	.	.
8B	so	.	.	.	.	.	.
8B	I	.	.	.	.	.	.
8B	can	.	.	.	.	.	.
=78	=78	=78	=78	=78	=78	=78	=78
8g#	hear	1BM	.	voice	B	151.757	B:maj
8f#	my	.	.	.	.	.	.
8f#	sweet-	.	.	.	B	.	.
8d#	-um	.	.	.	.	.	.
4f#	ba-	.	.	.	C	.	.
8f#	-by	.	.	.	.	.	.
16d#	say	.	.	.	C	.	.
16c#	_	.	.	.	.	.	.
=79	=79	=79	=79	=79	=79	=79	=79
4B	_	1BM	.	voice	.	153.727	B:maj
4r	.	.	.	.	.	.	.
8r	.	.	.	.	.	.	.
8A	Keep	.	.	.	.	.	.
8A	on	.	.	.	.	.	.
8A	a	.	.	.	.	.	.
=80	=80	=80	=80	=80	=80	=80	=80
*>Letter>B	*>Letter>B	*>Letter>B	*>Letter>B	*>Letter>B	*>Letter>B	*>Letter>B	*>Letter>B
*>Label>Chorus	*>Label>Chorus	*>Label>Chorus	*>Label>Chorus	*>Label>Chorus	*>Label>Chorus	*>Label>Chorus	*>Label>Chorus
8A	rock-	1BM	newline	voice	.	155.698	B:maj
8B	-in'	.	.	.	.	.	.
8B	me	.	.	.	.	.	.
4.B	ba-	.	.	.	.	.	.
8B	-by	.	.	.	.	.	.
8r	.	.	.	.	.	.	.
=81	=81	=81	=81	=81	=81	=81	=81
2r	.	1BM	.	voice	.	157.663	B:maj
8r	.	.	.	.	.	.	.
8A	Keep	.	.	.	.	.	.
8A	on	.	.	.	.	.	.
8A	a	.	.	.	.	.	.
=82	=82	=82	=82	=82	=82	=82	=82
8A	rock-	1AM	.	voice	.	159.628	A:maj
8B	-in'	.	.	.	.	.	.
8B	me	.	.	.	.	.	.
4.B	ba-	.	.	.	.	.	.
8B	-by	.	.	.	.	.	.
8r	.	.	.	.	.	.	.
=83	=83	=83	=83	=83	=83	=83	=83
2r	.	1AM	.	voice	.	161.593	A:maj
8r	.	.	.	.	.	.	.
8A	Keep	.	.	.	.	.	.
8A	on	.	.	.	.	.	.
8A	a	.	.	.	.	.	.
=84	=84	=84	=84	=84	=84	=84	=84
8A	rock-	1EM	newline	voice	.	163.558	E:maj
8B	-in'	.	.	.	.	.	.
8B	me	.	.	.	.	.	.
2B	ba-	.	.	.	.	.	.
8A	-by	.	.	.	.	.	.
=85	=85	=85	=85	=85	=85	=85	=85
2r	.	1EM	.	voice	.	165.513	E:maj
8r	.	.	.	.	.	.	.
8A	Keep	.	.	.	.	.	.
8A	on	.	.	.	.	.	.
8A	a	.	.	.	.	.	.
=86	=86	=86	=86	=86	=86	=86	=86
8A	rock-	1BM	.	voice	.	167.468	B:maj
8B	-in'	.	.	.	.	.	.
8B	me	.	.	.	.	.	.
8A	rock-	.	.	.	.	.	.
8B	-in'	.	.	.	.	.	.
8B	me	.	.	.	.	.	.
8A	rock-	.	.	.	.	.	.
8B	-in'	.	.	.	.	.	.
=87	=87	=87	=87	=87	=87	=87	=87
8d#	Ba-	1BM	.	voice	.	169.423	B:maj
8d	-by	.	.	.	.	.	.
8d#	Ba-	.	.	.	.	.	.
8d	-by	.	.	.	.	.	.
8d#	Ba-	.	.	.	.	.	.
8d	-by	.	.	.	.	.	.
8A	Keep	.	.	.	.	.	.
8A	on	.	.	.	.	.	.
=88	=88	=88	=88	=88	=88	=88	=88
*>Letter>B	*>Letter>B	*>Letter>B	*>Letter>B	*>Letter>B	*>Letter>B	*>Letter>B	*>Letter>B
*>Label>Chorus	*>Label>Chorus	*>Label>Chorus	*>Label>Chorus	*>Label>Chorus	*>Label>Chorus	*>Label>Chorus	*>Label>Chorus
8A	rock-	1BM	newline	fadeout	.	171.379	B:maj
8B	-in'	.	.	.	.	.	.
8B	me	.	.	.	.	.	.
4.B	ba-	.	.	.	.	.	.
8B	-by	.	.	.	.	.	.
8r	.	.	.	.	.	.	.
=89	=89	=89	=89	=89	=89	=89	=89
2r	.	1BM	.	fadeout	.	173.337	B:maj
8r	.	.	.	.	.	.	.
8A	Keep	.	.	.	.	.	.
8A	on	.	.	.	.	.	.
8A	a	.	.	.	.	.	.
=90	=90	=90	=90	=90	=90	=90	=90
8A	rock-	1AM	.	fadeout	.	175.295	A:maj
8B	-in'	.	.	.	.	.	.
8B	me	.	.	.	.	.	.
4.B	ba-	.	.	.	.	.	.
8B	-by	.	.	.	.	.	.
8r	.	.	.	.	.	.	.
=91	=91	=91	=91	=91	=91	=91	=91
2r	.	1AM	.	fadeout	.	177.253	A:maj
8r	.	.	.	.	.	.	.
8A	Keep	.	.	.	.	.	.
8A	on	.	.	.	.	.	.
8A	a	.	.	.	.	.	.
=92	=92	=92	=92	=92	=92	=92	=92
8A	rock-	1EM	newline	voice	.	179.211	E:maj
8B	-in'	.	.	.	.	.	.
8B	me	.	.	.	.	.	.
2B	ba-	.	.	.	.	.	.
8A	-by	.	.	.	.	.	.
=93	=93	=93	=93	=93	=93	=93	=93
2r	.	1EM	.	voice	.	180.883	E:maj
8r	.	.	.	.	.	.	.
8A	Keep	.	.	.	.	.	.
8A	on	.	.	.	.	.	.
8A	a	.	.	.	.	.	.
=94	=94	=94	=94	=94	=94	=94	=94
8A	rock-	1BM	.	voice	.	182.556	B:maj
8B	-in'	.	.	.	.	.	.
8B	me	.	.	.	.	.	.
8A	rock-	.	.	.	.	.	.
8B	-in'	.	.	.	.	.	.
8B	me	.	.	.	.	.	.
8A	rock-	.	.	.	.	.	.
8B	-in'	.	.	.	.	.	.
=95	=95	=95	=95	=95	=95	=95	=95
8d#	Ba-	1BM	.	voice	.	184.229	B:maj
8d	-by	.	.	.	.	.	.
8d#	Ba-	.	.	.	.	.	.
8d	-by	.	.	.	.	.	.
8d#	Ba-	.	.	.	.	.	.
8d	-by	.	.	.	.	.	.
4r	.	.	.	.	.	.	.
r;	.	1r;	.	r	.	185.901	N.C.
r;	.	1r;	.	r	.	188.944	N.C.
*-	*-	*-	*-	*-	*-	*-	*-
!!!BillboardChartDate: 1976/09/25
!!!BillboardPeak: 1
!!!BillboardWeeksOnChart: 18
!!!COC: Steve Miller Band
!!!ENC: Nathaniel Condit-Schultz
!!!EST: Awating manual error checking and editing.
!!!OTL: Rock'n Me
!!!RDF**chordsym: original McGill chord annotation + (implied pitch class set, with bass pitch in first position)
!!!RDF**harmony: **recip + pitch class of root + harmonic quality
!!!RDF**leadinstrument: original McGill primary instrumentation annotation
!!!RDF**phrase: newline = linebreak in original McGill transcription
!!!RDF**timestamp: McGill audio timestamp in seconds
!!!RDT: 2017/01/12/
!!!SampleActualRank: 21
!!!SampleID#: 1249
!!!SampleTargetRank: 20
